X:1
T:Gallopede
L:1/8
Q:160
M:4/4
K:G
|:dc| B2Bc A2AB| G2G2 G2AB| cBcd edcB| A2A2 A2 dc|
    B2Bc A2AB| G2G2 G2AB| cBAG d2 d2| B6 :|
\
dc| B2gf e2ed| dcBc A2dc| B2gf edcB| A2A2 A2 dc|
    B2gf e2ed| dcBc A2dc| BdcB AcBA| G2G2 G2 Bc|
    d2d2 d2g2| d2d2 d2g2| d2d2 edcB| A2A2 A2 Bc|
    d2d2 d2g2| d2d2 d2g2| edcB dcBA| G2G2 G2 |